X: 13272
T: Five Miles Away
R: reel
M: 4/4
K: Dmajor
d2 ({e}dB A)BAF|d2 (AF) Agfe|dedF ABAF|GFEF GABc|
d2 ({e}dB A)BAF|d2 (AF) Agfe|dedF ABAF|GBAG (FD)D||
g|fdAd fdad|fdAd ceeg|fdAd fdad|bage fddg|
fdAd fdad|fdAd ceeg|(3fga (ge) fdec|dABG FDDz||

